X:4744
T:Oak Tree, The
O:england
R:reel
D:Sharon Shannon
D:Tommy Peoples
D:Frankie Gavin: Frankie Goes to Town
M:C|
K:D
FDAD FDAD|FAAF GEFD|~A,3B, CA,EA,|A,G,A,B, CDEG|
FDAD FDAD|FAAF GEFA|(3Bcd eg faec|1 d2ce dBAG:|2 d2ce dfeg||
|:fB~B2 fa^ge|fece ~f3e|cA~A2 fAeA|(3cBA ea fece|
fB~B2 fa^ge|fece faec|ABce ~a3e|1 faec dfeg:|2 faec dABc||
d2fd ~d2fd|c2ec ~c2ec|d2fd ~d2fg|gfge dcBc|
d2fd Adfd|c2ec Acec|dfaf gefd|(3Bcd ec dBAG||
"variations"
|:FD~D2 FDAD|FDAD GEFD|~E3F GEED|~E3F GECE|
FD~D2 FDAD|FDAD GEFA|Bdef gece|1 dfec dBAG:|2 dfec dfeg||
|:fB~B2 fa^ga|fece fcec|A2cA eAce|Acea fece|
fB~B2 fa^ge|fece fcec|ABce ~a3e|1 faec dfeg:|2 faec dABc||
d2fd ~d2fd|c2ec ABcA|d2fd ~d2fg|gfge dcBc|
defd adfd|cdec ABcA|~d3e f2ec|Bdec dBAG||


